X:1
T:Selvin, SM
T:Selvin, SM
T:Lowell Mason (1792-1872)
T:Public Domain Courtesy of the Cyber Hymnal™
C:Lowell Mason (1792-1872)
Z:Public Domain
Z:Courtesy of the Cyber Hymnal™
%%score 1 ( 2 3 )
L:1/8
Q:1/4=180
M:3/2
K:Eb
V:1 treble 
V:2 bass 
V:3 bass 
V:1
 [EG]4 | [EG]4 [DF]4 [EG]4 | [DB]2 [DA]2 [DA]4 [EG]4 | [DF]4 [EG]4 [FA]4 | %4
 [Ac]2 [GB]2 [GB]4 [Ge]4 | [Ae]2 [Ec]2 [Ec]4 [Ae]4 | [Ge]2 [EB]2 [EB]4 [EB]4 | %7
 [DB]2 [DF]2 [DF]4 [FA]4 | [FA]4 [EG]4 [GB]4 | [Ac]2 [EA]2 [EA]4 [Ac]4 | [GB]2 [EG]2 [EG]4 [EG]4 | %11
 [DF]2 [DB]2 [DB]4 [B,D]2 [DF]2 | [DF]4 E4 |] %13
V:2
 B,4 | z4 [G,B,]4 x4 | [F,B,]2 [F,B,]2 [F,B,]4 [G,B,]4 | B,8 [F,B,]4 | %4
 [E,B,]2 [E,B,]2 [E,B,]4 [E,B,]4 | [A,C]2 A,2 A,4 [A,C]4 | [E,B,]2 [E,G,]2 [E,G,]4 [E,G,]4 | %7
 [B,,F,]2 [B,,B,]2 [B,,B,]4 [B,,B,]4 | B,8 [E,E]4 | [A,,E]2 [A,,C]2 [A,,C]4 [A,,E]4 | %10
 [E,E]2 [E,B,]2 [E,B,]4 [E,B,]4 | [B,,B,]2 [B,,F,]2 [B,,F,]4 [B,,A,]4 | [B,,A,]4 [E,G,]4 |] %13
V:3
 (E,2 G,2) | B,8 A,4 | x12 | A,4 G,4 x4 | x12 | x12 | x12 | x12 | B,,4 E,4 x4 | x12 | x12 | x12 | %12
 x8 |] %13

